public/assets/images/icons/white/file-presentation.svg

<svg xmlns="http://www.w3.org/2000/svg" viewBox="0 0 54 54"><path d="M10 3v48h22.6a6 6 0 0 0 4.28-1.79l5.39-5.48A6 6 0 0 0 44 39.49V3zm30.91 3.06V26H29.82a3.07 3.07 0 0 0-2.92-2h-7.8a3.07 3.07 0 0 0-2.92 2h-3.09V6.06zM35 46.68V42h4.64zM37.91 39H32v5.91a3 3 0 0 1-3 3H13.09V29H16v4h14v-4h10.91v7a3 3 0 0 1-3 3z" fill="#fff"/><path d="M23 22a4.5 4.5 0 1 0-4.5-4.5A4.49 4.49 0 0 0 23 22zm8-13.03h7v7h-7zm0 9h7v3h-7z" fill="#fff"/></svg>

<svg xmlns="http://www.w3.org/2000/svg" viewBox="0 0 54 54"><defs><style>.a{fill:#ffffff;}</style></defs><path class="a" d="M10,3V51H32.6a6,6,0,0,0,4.28-1.79l5.39-5.48A6,6,0,0,0,44,39.49V3ZM40.91,6.06V26H29.82a3.07,3.07,0,0,0-2.92-2H19.1a3.07,3.07,0,0,0-2.92,2H13.09V6.06ZM35,46.68V42h4.64ZM37.91,39H32v5.91a3,3,0,0,1-3,3H13.09V29H16v4H30V29H40.91v7A3,3,0,0,1,37.91,39Z"/><path class="a" d="M23,22a4.5,4.5,0,1,0-4.5-4.5A4.49,4.49,0,0,0,23,22Z"/><rect class="a" x="31" y="8.97" width="7" height="7"/><rect class="a" x="31" y="17.97" width="7" height="3"/></svg>
